icons/midnadark/actions/24/selection-move-to-layer-below.svg

<?xml version="1.0" encoding="UTF-8" standalone="no"?>
<!-- Created with Inkscape (http://www.inkscape.org/) -->

<svg
   xmlns:dc="http://purl.org/dc/elements/1.1/"
   xmlns:cc="http://creativecommons.org/ns#"
   xmlns:rdf="http://www.w3.org/1999/02/22-rdf-syntax-ns#"
   xmlns:svg="http://www.w3.org/2000/svg"
   xmlns="http://www.w3.org/2000/svg"
   xmlns:sodipodi="http://sodipodi.sourceforge.net/DTD/sodipodi-0.dtd"
   xmlns:inkscape="http://www.inkscape.org/namespaces/inkscape"
   width="16"
   height="16"
   id="svg3049"
   version="1.1"
   inkscape:version="0.91 r13725"
   sodipodi:docname="selection-move-to-layer-below.svg"
   inkscape:export-filename="/home/uri/.kde/share/icons/NITRUX-KDE/16x16/actions/view-right-new.png"
   inkscape:export-xdpi="30"
   inkscape:export-ydpi="30">
  <defs
     id="defs3051" />
  <sodipodi:namedview
     id="base"
     pagecolor="#ffffff"
     bordercolor="#666666"
     borderopacity="1.0"
     inkscape:pageopacity="0.0"
     inkscape:pageshadow="2"
     inkscape:zoom="24.411306"
     inkscape:cx="-0.79585889"
     inkscape:cy="11.052595"
     inkscape:document-units="px"
     inkscape:current-layer="layer1"
     showgrid="true"
     fit-margin-top="0"
     fit-margin-left="0"
     fit-margin-right="0"
     fit-margin-bottom="0"
     inkscape:window-width="1366"
     inkscape:window-height="633"
     inkscape:window-x="0"
     inkscape:window-y="33"
     inkscape:window-maximized="1"
     inkscape:showpageshadow="false"
     borderlayer="true"
     inkscape:object-nodes="true"
     inkscape:snap-bbox="true">
    <inkscape:grid
       type="xygrid"
       id="grid4085" />
    <sodipodi:guide
       position="2.0000044,14.00003"
       orientation="12,0"
       id="guide4075" />
    <sodipodi:guide
       position="2.0000044,2.0000296"
       orientation="0,12"
       id="guide4077" />
    <sodipodi:guide
       position="14.000004,2.0000296"
       orientation="-12,0"
       id="guide4079" />
    <sodipodi:guide
       position="14.000004,14.00003"
       orientation="0,-12"
       id="guide4081" />
  </sodipodi:namedview>
  <metadata
     id="metadata3054">
    <rdf:RDF>
      <cc:Work
         rdf:about="">
        <dc:format>image/svg+xml</dc:format>
        <dc:type
           rdf:resource="http://purl.org/dc/dcmitype/StillImage" />
        <dc:title />
      </cc:Work>
    </rdf:RDF>
  </metadata>
  <g
     inkscape:label="Capa 1"
     inkscape:groupmode="layer"
     id="layer1"
     transform="translate(-421.71429,-531.79074)">
    <path
       style="fill:#ffffff;fill-opacity:1;fill-rule:evenodd;stroke:none;stroke-width:1.33333504px;stroke-linecap:butt;stroke-linejoin:miter;stroke-opacity:1"
       d="m 426.71429,542.79075 -3,3 9,0 3,-3.00008 z"
       id="path4144-3-8-1-9"
       inkscape:connector-curvature="0" />
    <path
       style="fill:#1d99f3;fill-opacity:1;stroke:none"
       d="m 432.71429,536.79076 0,4.03116 -1.34375,-1.43744 -0.65625,0.68744 2.3125,2.50005 0.1875,0.21877 0.1875,-0.21877 2.3125,-2.50005 -0.65625,-0.68744 -1.34375,1.43744 c 10e-6,-0.0232 0,-2.90774 0,-4.03116 z"
       id="rect4071-0-1-6-1-9"
       inkscape:connector-curvature="0"
       sodipodi:nodetypes="cccccccccccc" />
    <path
       style="fill:#ffffff;fill-opacity:1;fill-rule:evenodd;stroke:none;stroke-width:1.33333504px;stroke-linecap:butt;stroke-linejoin:miter;stroke-opacity:1"
       d="M 5 2 L 3 4 L 2 5 L 6 5 L 9 5 L 9 4 L 6 4 L 4.4160156 4 L 5.4140625 3 L 10 3 L 11.583984 3 L 10.585938 4 L 12 4 L 13 3 L 14 2 L 10 2 L 5 2 z "
       transform="translate(421.71429,531.79074)"
       id="path4144-3-1-1-5-9-2" />
  </g>
</svg>

<svg xmlns="http://www.w3.org/2000/svg" viewBox="0 0 16 16"><g transform="translate(-421.71-531.79)"><path d="m426.71 542.79l-3 3h9l3-3z" fill="#fff" fill-rule="evenodd"/><path d="m432.71 536.79v4.03l-1.344-1.437-.656.687 2.313 2.5.188.219.188-.219 2.313-2.5-.656-.687-1.344 1.437c0-.023 0-2.908 0-4.03z" fill="#1d99f3"/><path d="m5 2l-2 2-1 1h4 3v-1h-3-1.584l.998-1h4.586 1.584l-.998 1h1.414l1-1 1-1h-4-5" transform="translate(421.71 531.79)" fill="#fff" fill-rule="evenodd"/></g></svg>
